resources/luts/Sony_Special_Sauce.cube
# Fujifilm X-H2S F-Log2/F-Gamut to WDR BT.709
TITLE "XH2S FLog2 to Rec709"
LUT_3D_SIZE 9
0.000000 0.000000 0.000000
0.023346 0.002792 0.002792
0.174731 0.020905 0.020905
0.392233 0.044739 0.044739
0.671412 0.061860 0.061860
0.841520 0.067597 0.067597
0.841520 0.067597 0.067597
0.841520 0.067597 0.067597
0.841520 0.067597 0.067597
0.003738 0.017762 0.003738
0.018402 0.017609 0.005127
0.170626 0.020417 0.020417
0.390173 0.044572 0.044572
0.670100 0.061814 0.061814
0.841520 0.067597 0.067597
0.841520 0.067597 0.067597
0.841520 0.067597 0.067597
0.841520 0.067597 0.067597
0.031434 0.149233 0.031434
0.031174 0.148043 0.031174
0.159396 0.152789 0.043275
0.399863 0.136233 0.056107
0.658412 0.061295 0.061295
0.841520 0.067597 0.067597
0.841520 0.067597 0.067597
0.841520 0.067597 0.067597
0.841520 0.067597 0.067597
0.060563 0.357031 0.060563
0.060502 0.356420 0.060502
0.060014 0.350958 0.060014
0.380926 0.366125 0.069810
0.702602 0.343725 0.069657
0.921233 0.301411 0.067109
0.907713 0.254398 0.069230
0.897185 0.220401 0.070161
0.897185 0.220401 0.070161
0.070466 0.619242 0.070466
0.070466 0.618860 0.070466
0.070497 0.615442 0.070497
0.154986 0.613504 0.069871
0.649104 0.625284 0.035080
0.927047 0.602548 0.000000
1.000000 0.579492 0.000000
1.000000 0.564828 0.000000
1.000000 0.564828 0.000000
0.061295 0.818540 0.061295
0.061357 0.818204 0.061357
0.061936 0.815213 0.061936
0.063096 0.805966 0.063096
0.522347 0.831968 0.000000
0.841581 0.812360 0.000000
1.000000 0.795773 0.000000
1.000000 0.785382 0.000000
1.000000 0.785382 0.000000
0.026398 0.972778 0.026398
0.026474 0.972473 0.026474
0.027161 0.969772 0.027161
0.029389 0.960983 0.029389
0.378149 0.966033 0.000000
0.762799 0.949447 0.000000
0.966995 0.935515 0.000000
1.000000 0.926818 0.000000
1.000000 0.926818 0.000000
0.023651 0.983352 0.023651
0.023651 0.983352 0.023651
0.023651 0.983352 0.023651
0.023651 0.983352 0.023651
0.250935 1.000000 0.000000
0.708827 1.000000 0.000000
0.926009 1.000000 0.000000
1.000000 1.000000 0.000000
1.000000 1.000000 0.000000
0.023651 0.983352 0.023651
0.023651 0.983352 0.023651
0.023651 0.983352 0.023651
0.023651 0.983352 0.023651
0.250935 1.000000 0.000000
0.708827 1.000000 0.000000
0.926009 1.000000 0.000000
1.000000 1.000000 0.000000
1.000000 1.000000 0.000000
0.000717 0.000717 0.014557
0.023026 0.003372 0.016999
0.174823 0.021454 0.033066
0.392386 0.044907 0.050156
0.671260 0.061860 0.061860
0.841520 0.067597 0.067597
0.841520 0.067597 0.067597
0.841520 0.067597 0.067597
0.841520 0.067597 0.067597
0.004364 0.018280 0.016968
0.018006 0.018006 0.018006
0.170642 0.020890 0.031266
0.390219 0.044694 0.048676
0.669932 0.061799 0.061799
0.841520 0.067597 0.067597
0.841520 0.067597 0.067597
0.841520 0.067597 0.067597
0.841520 0.067597 0.067597
0.031495 0.149233 0.033173
0.031235 0.148028 0.032685
0.158740 0.152621 0.043198
0.399573 0.136095 0.056077
0.658259 0.061280 0.061280
0.841520 0.067597 0.067597
0.841520 0.067597 0.067597
0.841520 0.067597 0.067597
0.841520 0.067597 0.067597
0.060563 0.356985 0.060563
0.060502 0.356374 0.060502
0.060014 0.350912 0.060014
0.380591 0.366049 0.069795
0.702403 0.343664 0.069657
0.921218 0.301366 0.067109
0.907698 0.254337 0.069230
0.897169 0.220325 0.070161
0.897169 0.220325 0.070161
0.070466 0.619226 0.070466
0.070466 0.618845 0.070466
0.070497 0.615412 0.070497
0.154025 0.613382 0.069886
0.648875 0.625254 0.035126
0.926894 0.602518 0.000000
1.000000 0.579461 0.000000
1.000000 0.564797 0.000000
1.000000 0.564797 0.000000
0.061295 0.818524 0.061295
0.061357 0.818189 0.061357
0.061936 0.815183 0.061936
0.063096 0.805936 0.063096
0.522057 0.831952 0.000000
0.841398 0.812345 0.000000
1.000000 0.795743 0.000000
1.000000 0.785351 0.000000
1.000000 0.785351 0.000000
0.026398 0.972747 0.026398
0.026474 0.972442 0.026474
0.027176 0.969741 0.027176
0.029404 0.960967 0.029404
0.377737 0.966018 0.000000
0.762600 0.949432 0.000000
0.966857 0.935485 0.000000
1.000000 0.926802 0.000000
1.000000 0.926802 0.000000
0.023651 0.983352 0.023651
0.023651 0.983352 0.023651
0.023651 0.983352 0.023651
0.023651 0.983352 0.023651
0.250355 1.000000 0.000000
0.708629 1.000000 0.000000
0.925856 1.000000 0.000000
1.000000 1.000000 0.000000
1.000000 1.000000 0.000000
0.023651 0.983352 0.023651
0.023651 0.983352 0.023651
0.023651 0.983352 0.023651
0.023651 0.983352 0.023651
0.250355 1.000000 0.000000
0.708629 1.000000 0.000000
0.925856 1.000000 0.000000
1.000000 1.000000 0.000000
1.000000 1.000000 0.000000
0.006104 0.006104 0.123796
0.019303 0.007675 0.125231
0.175708 0.026337 0.142657
0.398352 0.048600 0.164218
0.678874 0.063920 0.177279
0.850278 0.068666 0.174609
0.849454 0.068574 0.164263
0.848905 0.068513 0.157534
0.848905 0.068513 0.157534
0.009522 0.022522 0.126452
0.014069 0.021164 0.126497
0.171466 0.025788 0.141344
0.396201 0.048417 0.163149
0.677470 0.063844 0.176242
0.850202 0.068666 0.173556
0.849363 0.068574 0.163134
0.848814 0.068513 0.156344
0.848814 0.068513 0.156344
0.036973 0.154147 0.147036
0.036713 0.152941 0.146639
0.156588 0.156588 0.156588
0.403738 0.138705 0.170275
0.665064 0.063233 0.166934
0.849439 0.068574 0.164019
0.848539 0.068482 0.152880
0.847944 0.068406 0.145541
0.847944 0.068406 0.145541
0.062425 0.361334 0.155367
0.062379 0.360723 0.155093
0.061906 0.355184 0.152712
0.380529 0.368307 0.161303
0.704326 0.344457 0.150393
0.924544 0.301305 0.131960
0.910506 0.254124 0.118624
0.899535 0.219974 0.110201
0.899535 0.219974 0.110201
0.070420 0.619684 0.086091
0.070436 0.619287 0.085817
0.070466 0.615747 0.083452
0.145190 0.612451 0.075319
0.646860 0.624933 0.035508
0.925490 0.602258 0.000000
1.000000 0.579187 0.000000
1.000000 0.564523 0.000000
1.000000 0.564523 0.000000
0.061341 0.818311 0.061341
0.061402 0.817975 0.061402
0.061982 0.814984 0.061982
0.063111 0.805753 0.063111
0.519478 0.831769 0.000000
0.839857 0.812161 0.000000
1.000000 0.795560 0.000000
1.000000 0.785168 0.000000
1.000000 0.785168 0.000000
0.026444 0.972564 0.026444
0.026520 0.972274 0.026520
0.027222 0.969558 0.027222
0.029450 0.960784 0.029450
0.374166 0.965866 0.000000
0.760876 0.949279 0.000000
0.965515 0.935332 0.000000
1.000000 0.926650 0.000000
1.000000 0.926650 0.000000
0.023651 0.983352 0.023651
0.023651 0.983352 0.023651
0.023651 0.983352 0.023651
0.023651 0.983352 0.023651
0.245106 1.000000 0.000000
0.706752 1.000000 0.000000
0.924468 1.000000 0.000000
1.000000 1.000000 0.000000
1.000000 1.000000 0.000000
0.023651 0.983352 0.023651
0.023651 0.983352 0.023651
0.023651 0.983352 0.023651
0.023651 0.983352 0.023651
0.245106 1.000000 0.000000
0.706752 1.000000 0.000000
0.924468 1.000000 0.000000
1.000000 1.000000 0.000000
1.000000 1.000000 0.000000
0.014282 0.014282 0.289754
0.014267 0.014267 0.289693
0.168444 0.032685 0.307530
0.402548 0.053330 0.339132
0.688014 0.066560 0.366873
0.865797 0.070024 0.376349
0.865476 0.070008 0.372061
0.865278 0.069993 0.369390
0.865278 0.069993 0.369390
0.016922 0.026947 0.292058
0.016510 0.024979 0.291569
0.163867 0.032120 0.306615
0.400397 0.053178 0.338430
0.686641 0.066529 0.366323
0.865766 0.070024 0.375891
0.865446 0.070008 0.371603
0.865248 0.069993 0.368933
0.865248 0.069993 0.368933
0.043580 0.160418 0.319097
0.043381 0.159182 0.318669
0.144686 0.159655 0.331319
0.405142 0.140368 0.354376
0.674479 0.066117 0.361440
0.865476 0.070008 0.371954
0.865156 0.069978 0.367620
0.864958 0.069978 0.364920
0.864958 0.069978 0.364920
0.065660 0.369268 0.355825
0.065614 0.368658 0.355627
0.065263 0.363165 0.353933
0.373022 0.373022 0.373022
0.708339 0.345907 0.383215
0.932815 0.300633 0.380804
0.924407 0.253422 0.373739
0.914473 0.219135 0.368490
0.914473 0.219135 0.368490
0.069093 0.629953 0.358923
0.069108 0.629572 0.358801
0.069215 0.626123 0.357733
0.113207 0.619120 0.356100
0.644480 0.627436 0.341329
0.920943 0.601434 0.326772
1.000000 0.578332 0.320653
1.000000 0.563638 0.316838
1.000000 0.563638 0.316838
0.047028 0.832959 0.324697
0.047105 0.832624 0.324620
0.047852 0.829603 0.323857
0.050217 0.819730 0.321401
0.510994 0.831189 0.291646
0.834791 0.811566 0.283391
1.000000 0.794949 0.276402
1.000000 0.784543 0.272023
1.000000 0.784543 0.272023
0.009506 0.984802 0.271290
0.009598 0.984497 0.271199
0.010452 0.981750 0.270466
0.013214 0.972824 0.268040
0.362325 0.965362 0.251713
0.755230 0.948775 0.242267
0.961181 0.934813 0.234195
1.000000 0.926131 0.229129
1.000000 0.926131 0.229129
0.008057 0.994934 0.244266
0.008072 0.994934 0.244114
0.008164 0.994873 0.242832
0.008453 0.994675 0.238666
0.227344 1.000000 0.223697
0.700649 1.000000 0.213199
0.919905 1.000000 0.204181
1.000000 1.000000 0.198474
1.000000 1.000000 0.198474
0.008057 0.994934 0.244266
0.008072 0.994934 0.244114
0.008164 0.994873 0.242832
0.008453 0.994675 0.238666
0.227344 1.000000 0.223697
0.700649 1.000000 0.213199
0.919905 1.000000 0.204181
1.000000 1.000000 0.198474
1.000000 1.000000 0.198474
0.023789 0.023789 0.482856
0.023789 0.023789 0.482826
0.139757 0.037644 0.496345
0.398444 0.057618 0.544900
0.692363 0.068650 0.586069
0.881895 0.070588 0.604837
0.881712 0.070588 0.602289
0.881605 0.070588 0.600717
0.881605 0.070588 0.600717
0.024750 0.028397 0.483619
0.024338 0.026444 0.483162
0.134020 0.036957 0.495430
0.396201 0.057481 0.544274
0.690974 0.068620 0.585641
0.881865 0.070588 0.604578
0.881697 0.070588 0.602014
0.881590 0.070588 0.600443
0.881590 0.070588 0.600443
0.049531 0.164523 0.521538
0.049348 0.163256 0.521035
0.094636 0.156710 0.526146
0.396414 0.137652 0.565408
0.678706 0.068345 0.581827
0.881712 0.070588 0.602228
0.881544 0.070588 0.599664
0.881437 0.070588 0.598077
0.881437 0.070588 0.598077
0.068177 0.375601 0.578286
0.068147 0.374990 0.578088
0.067887 0.369497 0.576303
0.359655 0.373953 0.607965
0.705058 0.344854 0.628061
0.940230 0.294102 0.634287
0.936080 0.249393 0.624826
0.926726 0.214557 0.618112
0.926726 0.214557 0.618112
0.066804 0.637049 0.611353
0.066819 0.636667 0.611246
0.067002 0.633234 0.610330
0.067552 0.622004 0.607294
0.627710 0.627710 0.627710
0.911162 0.599664 0.626505
1.000000 0.576486 0.623331
1.000000 0.561746 0.621378
1.000000 0.561746 0.621378
0.030167 0.844755 0.612863
0.030259 0.844419 0.612802
0.031083 0.841428 0.612131
0.033722 0.831708 0.609964
0.492409 0.829938 0.608850
0.823865 0.810285 0.604898
1.000000 0.793637 0.601602
1.000000 0.783215 0.599573
1.000000 0.783215 0.599573
0.000000 0.989670 0.596780
0.000000 0.989410 0.596704
0.000000 0.987198 0.596155
0.000000 0.979980 0.594339
0.335744 0.964309 0.590448
0.743038 0.947692 0.586358
0.951843 0.933715 0.582956
1.000000 0.925017 0.580850
1.000000 0.925017 0.580850
0.000000 1.000000 0.585107
0.000000 1.000000 0.585046
0.000000 1.000000 0.584482
0.000000 1.000000 0.582635
0.184817 1.000000 0.578653
0.687404 1.000000 0.574472
0.910109 1.000000 0.571008
1.000000 1.000000 0.568856
1.000000 1.000000 0.568856
0.000000 1.000000 0.585107
0.000000 1.000000 0.585046
0.000000 1.000000 0.584482
0.000000 1.000000 0.582635
0.184817 1.000000 0.578653
0.687404 1.000000 0.574472
0.910109 1.000000 0.571008
1.000000 1.000000 0.568856
1.000000 1.000000 0.568856
0.030579 0.030579 0.620813
0.030579 0.030579 0.620783
0.092912 0.038025 0.627970
0.388586 0.059983 0.693889
0.691188 0.069627 0.744961
0.892653 0.070390 0.770550
0.892531 0.070405 0.768566
0.892454 0.070405 0.767346
0.892454 0.070405 0.767346
0.030579 0.030579 0.620645
0.030579 0.030579 0.620615
0.084657 0.037034 0.626810
0.386236 0.059846 0.693217
0.689769 0.069596 0.744549
0.892638 0.070390 0.770336
0.892515 0.070405 0.768368
0.892439 0.070405 0.767147
0.892439 0.070405 0.767147
0.053086 0.165057 0.668818
0.052918 0.163775 0.668254
0.051377 0.151888 0.663005
0.382345 0.132372 0.715877
0.677317 0.069398 0.740902
0.892531 0.070405 0.768521
0.892409 0.070405 0.766537
0.892332 0.070405 0.765332
0.892332 0.070405 0.765332
0.069383 0.378607 0.738735
0.069368 0.377981 0.738521
0.069184 0.372473 0.736553
0.337758 0.373327 0.772335
0.697810 0.342596 0.802029
0.940887 0.287419 0.817273
0.946868 0.242222 0.804547
0.934173 0.209018 0.793759
0.934173 0.209018 0.793759
0.064698 0.640696 0.788144
0.064714 0.640299 0.788037
0.064942 0.636881 0.787060
0.065629 0.625666 0.783871
0.615854 0.624765 0.830320
0.900847 0.597818 0.827481
1.000000 0.574563 0.825147
1.000000 0.559762 0.823697
1.000000 0.559762 0.823697
0.017945 0.850599 0.812314
0.018051 0.850278 0.812238
0.018936 0.847303 0.811444
0.021790 0.837629 0.808881
0.472297 0.828641 0.814481
0.809781 0.809781 0.809781
1.000000 0.792264 0.809186
1.000000 0.781827 0.807706
1.000000 0.781827 0.807706
0.000000 0.988602 0.805676
0.000000 0.988342 0.805631
0.000000 0.986130 0.805234
0.000000 0.978897 0.803922
0.305791 0.963195 0.801099
0.730129 0.946563 0.798154
0.942031 0.932586 0.795712
1.000000 0.923857 0.794202
1.000000 0.923857 0.794202
0.000000 1.000000 0.797253
0.000000 1.000000 0.797208
0.000000 1.000000 0.796811
0.000000 1.000000 0.795483
0.130144 1.000000 0.792630
0.673350 1.000000 0.789639
0.899794 1.000000 0.787167
1.000000 1.000000 0.785657
1.000000 1.000000 0.785657
0.000000 1.000000 0.797253
0.000000 1.000000 0.797208
0.000000 1.000000 0.796811
0.000000 1.000000 0.795483
0.130144 1.000000 0.792630
0.673350 1.000000 0.789639
0.899794 1.000000 0.787167
1.000000 1.000000 0.785657
1.000000 1.000000 0.785657
0.035157 0.035157 0.713497
0.035157 0.035157 0.713481
0.043229 0.036103 0.714214
0.378164 0.061265 0.794644
0.688228 0.070069 0.852949
0.899596 0.070008 0.883574
0.899489 0.070008 0.881849
0.899428 0.070008 0.880797
0.899428 0.070008 0.880797
0.035142 0.035142 0.713359
0.035142 0.035142 0.713329
0.035126 0.035126 0.713100
0.375708 0.061143 0.793942
0.686809 0.070054 0.852537
0.899580 0.070008 0.883391
0.899489 0.070008 0.881682
0.899428 0.070008 0.880613
0.899428 0.070008 0.880613
0.055177 0.164218 0.768978
0.055024 0.162890 0.768353
0.053529 0.150698 0.762585
0.368536 0.126802 0.816281
0.674174 0.069902 0.848875
0.899489 0.070008 0.881819
0.899382 0.070024 0.880095
0.899321 0.070024 0.879042
0.899321 0.070024 0.879042
0.069947 0.379919 0.847852
0.069932 0.379309 0.847623
0.069795 0.373770 0.845502
0.317266 0.372076 0.882353
0.691432 0.339498 0.921462
0.938918 0.282094 0.942123
0.954086 0.235828 0.927855
0.939315 0.203723 0.912749
0.939315 0.203723 0.912749
0.063050 0.642557 0.907439
0.063081 0.642176 0.907317
0.063325 0.638743 0.906294
0.064118 0.627527 0.902907
0.602792 0.623301 0.962631
0.892241 0.596292 0.960220
1.000000 0.572976 0.958221
1.000000 0.558129 0.957000
1.000000 0.558129 0.957000
0.009445 0.853620 0.947738
0.009552 0.853300 0.947646
0.010483 0.850324 0.946746
0.013474 0.840681 0.943832
0.454994 0.827558 0.949203
0.802686 0.807843 0.946761
0.998077 0.791135 0.944732
1.000000 0.780682 0.943481
1.000000 0.780682 0.943481
0.000000 0.987701 0.941772
0.000000 0.987457 0.941741
0.000000 0.985229 0.941390
0.000000 0.977996 0.940291
0.278813 0.962280 0.937911
0.719265 0.945632 0.935439
0.932189 0.932189 0.932189
1.000000 0.922911 0.932128
1.000000 0.922911 0.932128
0.000000 1.000000 0.934691
0.000000 1.000000 0.934646
0.000000 1.000000 0.934310
0.000000 1.000000 0.933196
0.068605 1.000000 0.930800
0.661479 1.000000 0.928298
0.891157 1.000000 0.926238
1.000000 1.000000 0.924956
1.000000 1.000000 0.924956
0.000000 1.000000 0.934691
0.000000 1.000000 0.934646
0.000000 1.000000 0.934310
0.000000 1.000000 0.933196
0.068605 1.000000 0.930800
0.661479 1.000000 0.928298
0.891157 1.000000 0.926238
1.000000 1.000000 0.924956
1.000000 1.000000 0.924956
0.035630 0.035630 0.723125
0.035630 0.035630 0.723125
0.035630 0.035630 0.723125
0.368811 0.061006 0.804440
0.683314 0.070069 0.866514
0.900618 0.069917 0.900618
0.900618 0.069917 0.900618
0.900618 0.069917 0.900618
0.900618 0.069917 0.900618
0.035630 0.035630 0.723125
0.035630 0.035630 0.723125
0.035630 0.035630 0.723125
0.366308 0.060883 0.803876
0.681880 0.070054 0.866270
0.900618 0.069917 0.900618
0.900618 0.069917 0.900618
0.900618 0.069917 0.900618
0.900618 0.069917 0.900618
0.055146 0.161761 0.779919
0.054978 0.160418 0.779309
0.053468 0.148043 0.773632
0.357549 0.122423 0.826200
0.669245 0.069917 0.864073
0.898894 0.069947 0.900374
0.900618 0.069917 0.900618
0.900618 0.069917 0.900618
0.900618 0.069917 0.900618
0.070008 0.379126 0.865400
0.069993 0.378500 0.865187
0.069856 0.372961 0.863325
0.303044 0.370306 0.899474
0.685344 0.337957 0.943175
0.934615 0.280064 0.967437
0.955093 0.233066 0.955093
0.940307 0.200610 0.940307
0.940307 0.200610 0.940307
0.062425 0.642573 0.938277
0.062501 0.642176 0.938140
0.062913 0.638697 0.937224
0.063706 0.627512 0.934722
0.594629 0.622400 1.000000
0.886900 0.595346 1.000000
1.000000 0.571984 1.000000
1.000000 0.557122 1.000000
1.000000 0.557122 1.000000
0.006470 0.854261 0.995987
0.006561 0.853941 0.995926
0.007492 0.850980 0.995315
0.010452 0.841367 0.993317
0.444038 0.826902 1.000000
0.796689 0.807156 1.000000
0.993378 0.790448 1.000000
1.000000 0.779980 1.000000
1.000000 0.779980 1.000000
0.000000 0.987167 1.000000
0.000000 0.986908 1.000000
0.000000 0.984695 1.000000
0.000000 0.977447 1.000000
0.261021 0.961730 1.000000
0.712520 0.945068 1.000000
0.928771 0.931044 1.000000
1.000000 0.922316 1.000000
1.000000 0.922316 1.000000
0.000000 1.000000 1.000000
0.000000 1.000000 1.000000
0.000000 1.000000 1.000000
0.000000 1.000000 1.000000
0.025986 1.000000 1.000000
0.654093 1.000000 1.000000
0.885817 1.000000 1.000000
1.000000 1.000000 1.000000
1.000000 1.000000 1.000000
0.000000 1.000000 1.000000
0.000000 1.000000 1.000000
0.000000 1.000000 1.000000
0.000000 1.000000 1.000000
0.025986 1.000000 1.000000
0.654093 1.000000 1.000000
0.885817 1.000000 1.000000
1.000000 1.000000 1.000000
1.000000 1.000000 1.000000
0.035630 0.035630 0.723125
0.035630 0.035630 0.723125
0.035630 0.035630 0.723125
0.368811 0.061006 0.804440
0.683314 0.070069 0.866514
0.900618 0.069917 0.900618
0.900618 0.069917 0.900618
0.900618 0.069917 0.900618
0.900618 0.069917 0.900618
0.035630 0.035630 0.723125
0.035630 0.035630 0.723125
0.035630 0.035630 0.723125
0.366308 0.060883 0.803876
0.681880 0.070054 0.866270
0.900618 0.069917 0.900618
0.900618 0.069917 0.900618
0.900618 0.069917 0.900618
0.900618 0.069917 0.900618
0.055146 0.161761 0.779919
0.054978 0.160418 0.779309
0.053468 0.148043 0.773632
0.357549 0.122423 0.826200
0.669245 0.069917 0.864073
0.898894 0.069947 0.900374
0.900618 0.069917 0.900618
0.900618 0.069917 0.900618
0.900618 0.069917 0.900618
0.070008 0.379126 0.865400
0.069993 0.378500 0.865187
0.069856 0.372961 0.863325
0.303044 0.370306 0.899474
0.685344 0.337957 0.943175
0.934615 0.280064 0.967437
0.955093 0.233066 0.955093
0.940307 0.200610 0.940307
0.940307 0.200610 0.940307
0.062425 0.642573 0.938277
0.062501 0.642176 0.938140
0.062913 0.638697 0.937224
0.063706 0.627512 0.934722
0.594629 0.622400 1.000000
0.886900 0.595346 1.000000
1.000000 0.571984 1.000000
1.000000 0.557122 1.000000
1.000000 0.557122 1.000000
0.006470 0.854261 0.995987
0.006561 0.853941 0.995926
0.007492 0.850980 0.995315
0.010452 0.841367 0.993317
0.444038 0.826902 1.000000
0.796689 0.807156 1.000000
0.993378 0.790448 1.000000
1.000000 0.779980 1.000000
1.000000 0.779980 1.000000
0.000000 0.987167 1.000000
0.000000 0.986908 1.000000
0.000000 0.984695 1.000000
0.000000 0.977447 1.000000
0.261021 0.961730 1.000000
0.712520 0.945068 1.000000
0.928771 0.931044 1.000000
1.000000 0.922316 1.000000
1.000000 0.922316 1.000000
0.000000 1.000000 1.000000
0.000000 1.000000 1.000000
0.000000 1.000000 1.000000
0.000000 1.000000 1.000000
0.025986 1.000000 1.000000
0.654093 1.000000 1.000000
0.885817 1.000000 1.000000
1.000000 1.000000 1.000000
1.000000 1.000000 1.000000
0.000000 1.000000 1.000000
0.000000 1.000000 1.000000
0.000000 1.000000 1.000000
0.000000 1.000000 1.000000
0.025986 1.000000 1.000000
0.654093 1.000000 1.000000
0.885817 1.000000 1.000000
1.000000 1.000000 1.000000
1.000000 1.000000 1.000000
