resources/luts/Sony_Special_Sauce.cube
# Fujifilm X-H2S F-Log2/F-Gamut to WDR BT.709
TITLE "XH2S FLog2 to Rec709"
LUT_3D_SIZE 33
0.000000 0.000000 0.000000
0.000000 0.000000 0.000000
0.000000 0.000000 0.000000
0.000000 0.000000 0.000000
0.023346 0.002792 0.002792
0.054459 0.006516 0.006516
0.094530 0.011307 0.011307
0.133745 0.016007 0.016007
0.174731 0.020905 0.020905
0.220539 0.026383 0.026383
0.270436 0.032364 0.032364
0.325994 0.039002 0.039002
0.392233 0.044739 0.044739
0.466865 0.050355 0.050355
0.539300 0.055055 0.055055
0.607630 0.058854 0.058854
0.671412 0.061860 0.061860
0.731060 0.064240 0.064240
0.786252 0.066087 0.066087
0.837171 0.067491 0.067491
0.841520 0.067597 0.067597
0.841520 0.067597 0.067597
0.841520 0.067597 0.067597
0.841520 0.067597 0.067597
0.841520 0.067597 0.067597
0.841520 0.067597 0.067597
0.841520 0.067597 0.067597
0.841520 0.067597 0.067597
0.841520 0.067597 0.067597
0.841520 0.067597 0.067597
0.841520 0.067597 0.067597
0.841520 0.067597 0.067597
0.841520 0.067597 0.067597
0.000000 0.000000 0.000000
0.000000 0.000000 0.000000
0.000000 0.000000 0.000000
0.000000 0.000000 0.000000
0.023346 0.002792 0.002792
0.054459 0.006516 0.006516
0.094530 0.011307 0.011307
0.133745 0.016007 0.016007
0.174731 0.020905 0.020905
0.220539 0.026383 0.026383
0.270436 0.032364 0.032364
0.325994 0.039002 0.039002
0.392233 0.044739 0.044739
0.466865 0.050355 0.050355
0.539300 0.055055 0.055055
0.607630 0.058854 0.058854
0.671412 0.061860 0.061860
0.731060 0.064240 0.064240
0.786252 0.066087 0.066087
0.837171 0.067491 0.067491
0.841520 0.067597 0.067597
0.841520 0.067597 0.067597
0.841520 0.067597 0.067597
0.841520 0.067597 0.067597
0.841520 0.067597 0.067597
0.841520 0.067597 0.067597
0.841520 0.067597 0.067597
0.841520 0.067597 0.067597
0.841520 0.067597 0.067597
0.841520 0.067597 0.067597
0.841520 0.067597 0.067597
0.841520 0.067597 0.067597
0.841520 0.067597 0.067597
0.000000 0.000000 0.000000
0.000000 0.000000 0.000000
0.000000 0.000000 0.000000
0.000000 0.000000 0.000000
0.023346 0.002792 0.002792
0.054459 0.006516 0.006516
0.094530 0.011307 0.011307
0.133745 0.016007 0.016007
0.174731 0.020905 0.020905
0.220539 0.026383 0.026383
0.270436 0.032364 0.032364
0.325994 0.039002 0.039002
0.392233 0.044739 0.044739
0.466865 0.050355 0.050355
0.539300 0.055055 0.055055
0.607630 0.058854 0.058854
0.671412 0.061860 0.061860
0.731060 0.064240 0.064240
0.786252 0.066087 0.066087
0.837171 0.067491 0.067491
0.841520 0.067597 0.067597
0.841520 0.067597 0.067597
0.841520 0.067597 0.067597
0.841520 0.067597 0.067597
0.841520 0.067597 0.067597
0.841520 0.067597 0.067597
0.841520 0.067597 0.067597
0.841520 0.067597 0.067597
0.841520 0.067597 0.067597
0.841520 0.067597 0.067597
0.841520 0.067597 0.067597
0.841520 0.067597 0.067597
0.841520 0.067597 0.067597
0.000000 0.000000 0.000000
0.000000 0.000000 0.000000
0.000000 0.000000 0.000000
0.000000 0.000000 0.000000
0.023346 0.002792 0.002792
0.054459 0.006516 0.006516
0.094530 0.011307 0.011307
0.133745 0.016007 0.016007
0.174731 0.020905 0.020905
0.220539 0.026383 0.026383
0.270436 0.032364 0.032364
0.325994 0.039002 0.039002
0.392233 0.044739 0.044739
0.466865 0.050355 0.050355
0.539300 0.055055 0.055055
0.607630 0.058854 0.058854
0.671412 0.061860 0.061860
0.731060 0.064240 0.064240
0.786252 0.066087 0.066087
0.837171 0.067491 0.067491
0.841520 0.067597 0.067597
0.841520 0.067597 0.067597
0.841520 0.067597 0.067597
0.841520 0.067597 0.067597
0.841520 0.067597 0.067597
0.841520 0.067597 0.067597
0.841520 0.067597 0.067597
0.841520 0.067597 0.067597
0.841520 0.067597 0.067597
0.841520 0.067597 0.067597
0.841520 0.067597 0.067597
0.841520 0.067597 0.067597
0.841520 0.067597 0.067597
0.003738 0.017762 0.003738
0.003738 0.017762 0.003738
0.003738 0.017762 0.003738
0.003738 0.017762 0.003738
0.018402 0.017609 0.005127
0.048981 0.018738 0.008316
0.089906 0.020035 0.012528
0.129625 0.020127 0.016388
0.170626 0.020417 0.020417
0.217212 0.025986 0.025986
0.267689 0.032029 0.032029
0.323705 0.038727 0.038727
0.390173 0.044572 0.044572
0.465080 0.050217 0.050217
0.537713 0.054948 0.054948
0.606195 0.058778 0.058778
0.670100 0.061814 0.061814
0.729824 0.064195 0.064195
0.785092 0.066056 0.066056
0.836072 0.067460 0.067460
0.841520 0.067597 0.067597
0.841520 0.067597 0.067597
0.841520 0.067597 0.067597
0.841520 0.067597 0.067597
0.841520 0.067597 0.067597
0.841520 0.067597 0.067597
0.841520 0.067597 0.067597
0.841520 0.067597 0.067597
0.841520 0.067597 0.067597
0.841520 0.067597 0.067597
0.841520 0.067597 0.067597
0.841520 0.067597 0.067597
0.841520 0.067597 0.067597
0.008728 0.041444 0.008728
0.008728 0.041444 0.008728
0.008728 0.041444 0.008728
0.008728 0.041444 0.008728
0.012390 0.039979 0.008804
0.042954 0.041093 0.011978
0.085496 0.042588 0.016388
0.127535 0.042969 0.020523
0.169680 0.041871 0.024399
0.215534 0.038895 0.028275
0.264393 0.033539 0.031998
0.320623 0.038361 0.038361
0.387396 0.044343 0.044343
0.462684 0.050050 0.050050
0.535592 0.054826 0.054826
0.604288 0.058671 0.058671
0.668330 0.061723 0.061723
0.728176 0.064134 0.064134
0.783536 0.066011 0.066011
0.834592 0.067430 0.067430
0.841520 0.067597 0.067597
0.841520 0.067597 0.067597
0.841520 0.067597 0.067597
0.841520 0.067597 0.067597
0.841520 0.067597 0.067597
0.841520 0.067597 0.067597
0.841520 0.067597 0.067597
0.841520 0.067597 0.067597
0.841520 0.067597 0.067597
0.841520 0.067597 0.067597
0.841520 0.067597 0.067597
0.841520 0.067597 0.067597
0.841520 0.067597 0.067597
0.015427 0.073213 0.015427
0.015427 0.073213 0.015427
0.015427 0.073213 0.015427
0.015427 0.073213 0.015427
0.015015 0.071275 0.015015
0.034928 0.070909 0.016876
0.078416 0.072526 0.021393
0.124254 0.073350 0.025986
0.168612 0.072526 0.030137
0.216022 0.069734 0.034195
0.266011 0.064515 0.038041
0.321355 0.055543 0.041154
0.383673 0.044038 0.044038
0.459480 0.049836 0.049836
0.532753 0.054658 0.054658
0.601724 0.058549 0.058549
0.665980 0.061631 0.061631
0.725978 0.064057 0.064057
0.781460 0.065949 0.065949
0.832624 0.067384 0.067384
0.841520 0.067597 0.067597
0.841520 0.067597 0.067597
0.841520 0.067597 0.067597
0.841520 0.067597 0.067597
0.841520 0.067597 0.067597
0.841520 0.067597 0.067597
0.841520 0.067597 0.067597
0.841520 0.067597 0.067597
0.841520 0.067597 0.067597
0.841520 0.067597 0.067597
0.841520 0.067597 0.067597
0.841520 0.067597 0.067597
0.841520 0.067597 0.067597
0.022950 0.108949 0.022950
0.022950 0.108949 0.022950
0.022950 0.108949 0.022950
0.022950 0.108949 0.022950
0.022629 0.107454 0.022629
0.023438 0.105562 0.022354
0.066911 0.107927 0.027008
0.118273 0.110307 0.032441
0.166339 0.110933 0.037217
0.216770 0.109392 0.041245
0.269932 0.104631 0.044404
0.327489 0.095247 0.047074
0.390768 0.081117 0.049378
0.459174 0.060990 0.051148
0.529030 0.054429 0.054429
0.598337 0.058366 0.058366
0.662867 0.061494 0.061494
0.723095 0.063951 0.063951
0.778744 0.065858 0.065858
0.830030 0.067308 0.067308
0.841520 0.067597 0.067597
0.841520 0.067597 0.067597
0.841520 0.067597 0.067597
0.841520 0.067597 0.067597
0.841520 0.067597 0.067597
0.841520 0.067597 0.067597
0.841520 0.067597 0.067597
0.841520 0.067597 0.067597
0.841520 0.067597 0.067597
0.841520 0.067597 0.067597
0.841520 0.067597 0.067597
0.841520 0.067597 0.067597
0.841520 0.067597 0.067597
0.031434 0.149233 0.031434
0.031434 0.149233 0.031434
0.031434 0.149233 0.031434
0.031434 0.149233 0.031434
0.031174 0.148043 0.031174
0.030838 0.146426 0.030838
0.048142 0.146258 0.032486
0.104234 0.150027 0.038636
0.159396 0.152789 0.043275
0.214710 0.153399 0.047166
0.271641 0.151553 0.050568
0.332952 0.146395 0.053559
0.399863 0.136233 0.056107
0.471473 0.117998 0.057893
0.537331 0.093675 0.058762
0.596948 0.067521 0.059144
0.658412 0.061295 0.061295
0.718944 0.063798 0.063798
0.774838 0.065736 0.065736
0.826322 0.067216 0.067216
0.841520 0.067597 0.067597
0.841520 0.067597 0.067597
0.841520 0.067597 0.067597
0.841520 0.067597 0.067597
0.841520 0.067597 0.067597
0.841520 0.067597 0.067597
0.841520 0.067597 0.067597
0.841520 0.067597 0.067597
0.841520 0.067597 0.067597
0.841520 0.067597 0.067597
0.841520 0.067597 0.067597
0.841520 0.067597 0.067597
0.841520 0.067597 0.067597
0.039933 0.190631 0.039933
0.039933 0.190631 0.039933
0.039933 0.190631 0.039933
0.039933 0.190631 0.039933
0.039780 0.189624 0.039780
0.039551 0.188281 0.039551
0.039246 0.186343 0.039246
0.078096 0.189166 0.042557
0.144579 0.194247 0.047837
0.206806 0.196765 0.052003
0.268376 0.196933 0.055451
0.333516 0.194415 0.058473
0.404273 0.188251 0.061082
0.480522 0.176883 0.063203
0.551476 0.160601 0.064561
0.615259 0.138994 0.065248
0.671122 0.111437 0.065309
0.721096 0.082948 0.065126
0.769863 0.065583 0.065583
0.821592 0.067094 0.067094
0.841520 0.067597 0.067597
0.841520 0.067597 0.067597
0.841520 0.067597 0.067597
0.841520 0.067597 0.067597
0.841520 0.067597 0.067597
0.841520 0.067597 0.067597
0.841520 0.067597 0.067597
0.841520 0.067597 0.067597
0.841520 0.067597 0.067597
0.841520 0.067597 0.067597
0.841520 0.067597 0.067597
0.841520 0.067597 0.067597
0.841520 0.067597 0.067597
0.047318 0.239826 0.047318
0.047318 0.239826 0.047318
0.047318 0.239826 0.047318
0.047318 0.239826 0.047318
0.047196 0.238987 0.047196
0.047044 0.237858 0.047044
0.046815 0.236240 0.046815
0.046525 0.234150 0.046525
0.112474 0.240040 0.051438
0.189090 0.245243 0.056275
0.258122 0.247379 0.059785
0.328542 0.247013 0.062669
0.403723 0.243641 0.065064
0.484306 0.236332 0.066957
0.559564 0.225620 0.068223
0.628244 0.211902 0.069001
0.690272 0.195392 0.069459
0.746151 0.175891 0.069703
0.795468 0.153094 0.069764
0.837903 0.125887 0.069612
0.853742 0.097993 0.069032
0.842985 0.071168 0.067796
0.841520 0.067597 0.067597
0.841520 0.067597 0.067597
0.841520 0.067597 0.067597
0.841520 0.067597 0.067597
0.841520 0.067597 0.067597
0.841520 0.067597 0.067597
0.841520 0.067597 0.067597
0.841520 0.067597 0.067597
0.841520 0.067597 0.067597
0.841520 0.067597 0.067597
0.841520 0.067597 0.067597
0.054246 0.294545 0.054246
0.054246 0.294545 0.054246
0.054246 0.294545 0.054246
0.054246 0.294545 0.054246
0.054154 0.293828 0.054154
0.054047 0.292882 0.054047
0.053895 0.291524 0.053895
0.053681 0.289754 0.053681
0.055680 0.287709 0.053574
0.154253 0.296757 0.059480
0.237430 0.301472 0.063264
0.315862 0.303136 0.065949
0.396857 0.301976 0.067948
0.482292 0.297475 0.069352
0.561608 0.290120 0.070130
0.634043 0.280476 0.070481
0.699886 0.269017 0.070588
0.759960 0.255955 0.070542
0.814237 0.241611 0.070451
0.863066 0.226139 0.070344
0.893675 0.209461 0.070359
0.887694 0.191379 0.070542
0.881254 0.172503 0.070588
0.874250 0.152621 0.070436
0.866407 0.131167 0.070069
0.858610 0.110521 0.069490
0.851240 0.091646 0.068772
0.844327 0.074479 0.067964
0.842771 0.070634 0.067765
0.842771 0.070634 0.067765
0.842771 0.070634 0.067765
0.842771 0.070634 0.067765
0.842771 0.070634 0.067765
0.060563 0.357031 0.060563
0.060563 0.357031 0.060563
0.060563 0.357031 0.060563
0.060563 0.357031 0.060563
0.060502 0.356420 0.060502
0.060441 0.355596 0.060441
0.060334 0.354452 0.060334
0.060197 0.352941 0.060197
0.060014 0.350958 0.060014
0.079637 0.350744 0.060853
0.197528 0.360815 0.065797
0.291005 0.365133 0.068330
0.380926 0.366125 0.069810
0.472847 0.363928 0.070497
0.556954 0.359030 0.070542
0.633310 0.352117 0.070207
0.702602 0.343725 0.069657
0.765942 0.334127 0.069001
0.823423 0.323720 0.068315
0.875547 0.312749 0.067659
0.921233 0.301411 0.067109
0.917861 0.289311 0.067750
0.914473 0.277394 0.068315
0.911086 0.265736 0.068803
0.907713 0.254398 0.069230
0.904387 0.243442 0.069596
0.901122 0.232883 0.069886
0.897932 0.222751 0.070115
0.897185 0.220401 0.070161
0.897185 0.220401 0.070161
0.897185 0.220401 0.070161
0.897185 0.220401 0.070161
0.897185 0.220401 0.070161
0.065736 0.427070 0.065736
0.065736 0.427070 0.065736
0.065736 0.427070 0.065736
0.065736 0.427070 0.065736
0.065705 0.426535 0.065705
0.065675 0.425834 0.065675
0.065614 0.424842 0.065614
0.065537 0.423560 0.065537
0.065431 0.421851 0.065431
0.065278 0.419486 0.065278
0.110399 0.421881 0.066712
0.245762 0.432181 0.069734
0.351644 0.435874 0.070558
0.453208 0.435889 0.070329
0.543633 0.433021 0.069429
0.624659 0.428168 0.068193
0.697719 0.421897 0.066789
0.764294 0.414572 0.065324
0.824704 0.406561 0.063874
0.879896 0.398016 0.062058
0.931701 0.388693 0.058320
0.943755 0.379721 0.058961
0.940230 0.371191 0.061219
0.937179 0.362936 0.062928
0.935164 0.354772 0.063584
0.933242 0.347051 0.064164
0.931395 0.339788 0.064683
0.929656 0.332998 0.065156
0.929259 0.331456 0.065263
0.929259 0.331456 0.065263
0.929259 0.331456 0.065263
0.929259 0.331456 0.065263
0.929259 0.331456 0.065263
0.068956 0.495079 0.068956
0.068956 0.495079 0.068956
0.068956 0.495079 0.068956
0.068956 0.495079 0.068956
0.068925 0.494621 0.068925
0.068910 0.493996 0.068910
0.068879 0.493111 0.068879
0.068833 0.491981 0.068833
0.068788 0.490471 0.068788
0.068711 0.488396 0.068711
0.068605 0.485634 0.068605
0.170428 0.493538 0.070207
0.308629 0.501701 0.070420
0.424125 0.504005 0.069139
0.522408 0.502861 0.067185
0.608743 0.499519 0.064973
0.685878 0.494728 0.062501
0.758007 0.488579 0.055741
0.823957 0.481437 0.049439
0.884245 0.473671 0.043641
0.939086 0.465599 0.038376
0.972152 0.457664 0.035935
0.969802 0.450462 0.038239
0.967529 0.443641 0.040375
0.965347 0.437201 0.042374
0.963256 0.431189 0.044221
0.961273 0.425574 0.045914
0.959411 0.420386 0.047471
0.958984 0.419211 0.047822
0.958984 0.419211 0.047822
0.958984 0.419211 0.047822
0.958984 0.419211 0.047822
0.958984 0.419211 0.047822
0.070405 0.559136 0.070405
0.070405 0.559136 0.070405
0.070405 0.559136 0.070405
0.070405 0.559136 0.070405
0.070405 0.558724 0.070405
0.070390 0.558160 0.070390
0.070390 0.557366 0.070390
0.070375 0.556344 0.070375
0.070359 0.554986 0.070359
0.070329 0.553109 0.070329
0.070298 0.550622 0.070298
0.070253 0.547265 0.070253
0.248417 0.561501 0.069963
0.385977 0.566812 0.067460
0.494362 0.567315 0.064378
0.587411 0.565621 0.057984
0.670848 0.562081 0.048783
0.746990 0.556909 0.040131
0.816327 0.550652 0.032120
0.879576 0.543740 0.024735
0.937057 0.536477 0.018021
0.989212 0.529107 0.011948
0.991043 0.522667 0.013703
0.989456 0.516655 0.015869
0.987945 0.510994 0.017884
0.986511 0.505730 0.019745
0.985153 0.500832 0.021454
0.983871 0.496315 0.023026
0.983581 0.495308 0.023377
0.983581 0.495308 0.023377
0.983581 0.495308 0.023377
0.983581 0.495308 0.023377
0.983581 0.495308 0.023377
0.070466 0.619242 0.070466
0.070466 0.619242 0.070466
0.070466 0.619242 0.070466
0.070466 0.619242 0.070466
0.070466 0.618860 0.070466
0.070466 0.618357 0.070466
0.070466 0.617624 0.070466
0.070481 0.616678 0.070481
0.070497 0.615442 0.070497
0.070512 0.613718 0.070512
0.070527 0.611429 0.070527
0.070542 0.608362 0.070542
0.154986 0.613504 0.069871
0.337835 0.624460 0.065751
0.459648 0.627512 0.058686
0.560357 0.627832 0.046418
0.649104 0.625284 0.035080
0.729335 0.620920 0.024552
0.802029 0.615381 0.014847
0.868132 0.609110 0.005936
0.927047 0.602548 0.000000
0.977417 0.596323 0.000000
1.000000 0.590372 0.000000
1.000000 0.584756 0.000000
1.000000 0.579492 0.000000
1.000000 0.574563 0.000000
1.000000 0.570001 0.000000
1.000000 0.565774 0.000000
1.000000 0.564828 0.000000
1.000000 0.564828 0.000000
1.000000 0.564828 0.000000
1.000000 0.564828 0.000000
1.000000 0.564828 0.000000
0.069413 0.675120 0.069413
0.069413 0.675120 0.069413
0.069413 0.675120 0.069413
0.069413 0.675120 0.069413
0.069429 0.674769 0.069429
0.069444 0.674281 0.069444
0.069459 0.673610 0.069459
0.069490 0.672740 0.069490
0.069520 0.671580 0.069520
0.069551 0.669978 0.069551
0.069612 0.667857 0.069612
0.069688 0.665003 0.069688
0.069780 0.661173 0.069780
0.277180 0.676448 0.064469
0.417670 0.683818 0.050568
0.527489 0.685710 0.035508
0.622080 0.684169 0.021942
0.706630 0.680537 0.009506
0.782254 0.675471 0.000000
0.847776 0.669429 0.000000
0.905821 0.663569 0.000000
0.957427 0.657954 0.000000
1.000000 0.652598 0.000000
1.000000 0.647547 0.000000
1.000000 0.642817 0.000000
1.000000 0.638407 0.000000
1.000000 0.634318 0.000000
1.000000 0.630549 0.000000
1.000000 0.629709 0.000000
1.000000 0.629709 0.000000
1.000000 0.629709 0.000000
1.000000 0.629709 0.000000
1.000000 0.629709 0.000000
0.067552 0.726772 0.067552
0.067552 0.726772 0.067552
0.067552 0.726772 0.067552
0.067552 0.726772 0.067552
0.067567 0.726436 0.067567
0.067582 0.725978 0.067582
0.067613 0.725353 0.067613
0.067659 0.724529 0.067659
0.067704 0.723430 0.067704
0.067765 0.721935 0.067765
0.067857 0.719936 0.067857
0.067964 0.717250 0.067964
0.068101 0.713649 0.068101
0.195544 0.721889 0.064225
0.368627 0.735393 0.043885
0.489799 0.739223 0.025650
0.590967 0.738720 0.009751
0.679774 0.735088 0.000000
0.756893 0.729427 0.000000
0.824598 0.723857 0.000000
0.884321 0.718471 0.000000
0.937224 0.713313 0.000000
0.984298 0.708415 0.000000
1.000000 0.703792 0.000000
1.000000 0.699458 0.000000
1.000000 0.695430 0.000000
1.000000 0.691691 0.000000
1.000000 0.688258 0.000000
1.000000 0.687495 0.000000
1.000000 0.687495 0.000000
1.000000 0.687495 0.000000
1.000000 0.687495 0.000000
1.000000 0.687495 0.000000
0.065110 0.774319 0.065110
0.065110 0.774319 0.065110
0.065110 0.774319 0.065110
0.065110 0.774319 0.065110
0.065126 0.773999 0.065126
0.065141 0.773571 0.065141
0.065187 0.772961 0.065187
0.065232 0.772183 0.065232
0.065293 0.771145 0.065293
0.065370 0.769711 0.065370
0.065476 0.767819 0.065476
0.065629 0.765286 0.065629
0.065812 0.761868 0.065812
0.066056 0.757382 0.066056
0.312016 0.781994 0.039185
0.448035 0.788357 0.017151
0.556909 0.788708 0.000000
0.650904 0.783398 0.000000
0.731289 0.778103 0.000000
0.801343 0.772915 0.000000
0.862821 0.767910 0.000000
0.917082 0.763104 0.000000
0.965240 0.758541 0.000000
1.000000 0.754253 0.000000
1.000000 0.750240 0.000000
1.000000 0.746502 0.000000
1.000000 0.743053 0.000000
1.000000 0.739864 0.000000
1.000000 0.739147 0.000000
1.000000 0.739147 0.000000
1.000000 0.739147 0.000000
1.000000 0.739147 0.000000
1.000000 0.739147 0.000000
0.061295 0.818540 0.061295
0.061295 0.818540 0.061295
0.061295 0.818540 0.061295
0.061295 0.818540 0.061295
0.061357 0.818204 0.061357
0.061448 0.817762 0.061448
0.061570 0.817121 0.061570
0.061723 0.816297 0.061723
0.061936 0.815213 0.061936
0.062226 0.813718 0.062226
0.062608 0.811719 0.062608
0.062867 0.809232 0.062867
0.063096 0.805966 0.063096
0.063386 0.801678 0.063386
0.245640 0.823087 0.037217
0.402762 0.833127 0.010224
0.522347 0.831968 0.000000
0.621820 0.826947 0.000000
0.705730 0.821973 0.000000
0.778271 0.817090 0.000000
0.841581 0.812360 0.000000
0.897261 0.807858 0.000000
0.946532 0.803571 0.000000
0.990188 0.799542 0.000000
1.000000 0.795773 0.000000
1.000000 0.792264 0.000000
1.000000 0.789029 0.000000
1.000000 0.786053 0.000000
1.000000 0.785382 0.000000
1.000000 0.785382 0.000000
1.000000 0.785382 0.000000
1.000000 0.785382 0.000000
1.000000 0.785382 0.000000
0.052354 0.862440 0.052354
0.052354 0.862440 0.052354
0.052354 0.862440 0.052354
0.052354 0.862440 0.052354
0.052430 0.862119 0.052430
0.052522 0.861677 0.052522
0.052644 0.861067 0.052644
0.052811 0.860273 0.052811
0.053040 0.859220 0.053040
0.053346 0.857771 0.053346
0.053758 0.855833 0.053758
0.054292 0.853254 0.054292
0.055024 0.849790 0.055024
0.055955 0.845243 0.055955
0.161944 0.857252 0.039506
0.354086 0.873610 0.005051
0.487098 0.871000 0.000000
0.592721 0.866224 0.000000
0.680430 0.861494 0.000000
0.755581 0.856855 0.000000
0.820798 0.852369 0.000000
0.877913 0.848096 0.000000
0.928328 0.844038 0.000000
0.972885 0.840208 0.000000
1.000000 0.836637 0.000000
1.000000 0.833326 0.000000
1.000000 0.830259 0.000000
1.000000 0.827436 0.000000
1.000000 0.826810 0.000000
1.000000 0.826810 0.000000
1.000000 0.826810 0.000000
1.000000 0.826810 0.000000
1.000000 0.826810 0.000000
0.043473 0.902632 0.043473
0.043473 0.902632 0.043473
0.043473 0.902632 0.043473
0.043473 0.902632 0.043473
0.043534 0.902312 0.043534
0.043641 0.901884 0.043641
0.043778 0.901289 0.043778
0.043946 0.900511 0.043946
0.044190 0.899489 0.044190
0.044511 0.898070 0.044511
0.044938 0.896193 0.044938
0.045502 0.893675 0.045502
0.046265 0.890303 0.046265
0.047257 0.885893 0.047257
0.048341 0.880980 0.048341
0.301915 0.909758 0.001831
0.451316 0.906081 0.000000
0.563851 0.901518 0.000000
0.655650 0.896986 0.000000
0.733516 0.892546 0.000000
0.800671 0.888273 0.000000
0.859251 0.884184 0.000000
0.910796 0.880308 0.000000
0.956252 0.876661 0.000000
0.996490 0.873243 0.000000
1.000000 0.870085 0.000000
1.000000 0.867170 0.000000
1.000000 0.864485 0.000000
1.000000 0.863874 0.000000
1.000000 0.863874 0.000000
1.000000 0.863874 0.000000
1.000000 0.863874 0.000000
1.000000 0.863874 0.000000
0.034775 0.939345 0.034775
0.034775 0.939345 0.034775
0.034775 0.939345 0.034775
0.034775 0.939345 0.034775
0.034852 0.939040 0.034852
0.034943 0.938628 0.034943
0.035080 0.938033 0.035080
0.035279 0.937285 0.035279
0.035508 0.936278 0.035508
0.035843 0.934890 0.035843
0.036301 0.933059 0.036301
0.036881 0.930617 0.036881
0.037675 0.927321 0.037675
0.038712 0.923003 0.038712
0.039841 0.918196 0.039841
0.245197 0.941588 0.000824
0.415000 0.937667 0.000000
0.535348 0.933272 0.000000
0.631479 0.928908 0.000000
0.712154 0.924636 0.000000
0.781292 0.920531 0.000000
0.841352 0.916594 0.000000
0.894026 0.912871 0.000000
0.940383 0.909361 0.000000
0.981338 0.906096 0.000000
1.000000 0.903059 0.000000
1.000000 0.900252 0.000000
1.000000 0.897673 0.000000
1.000000 0.897093 0.000000
1.000000 0.897093 0.000000
1.000000 0.897093 0.000000
1.000000 0.897093 0.000000
1.000000 0.897093 0.000000
0.026398 0.972778 0.026398
0.026398 0.972778 0.026398
0.026398 0.972778 0.026398
0.026398 0.972778 0.026398
0.026474 0.972473 0.026474
0.026581 0.972061 0.026581
0.026719 0.971496 0.026719
0.026917 0.970748 0.026917
0.027161 0.969772 0.027161
0.027512 0.968414 0.027512
0.027970 0.966613 0.027970
0.028580 0.964218 0.028580
0.029389 0.960983 0.029389
0.030457 0.956756 0.030457
0.031632 0.952071 0.031632
0.181491 0.968765 0.002625
0.378149 0.966033 0.000000
0.507317 0.961776 0.000000
0.608072 0.957549 0.000000
0.691661 0.953429 0.000000
0.762799 0.949447 0.000000
0.824308 0.945647 0.000000
0.878096 0.942046 0.000000
0.925338 0.938674 0.000000
0.966995 0.935515 0.000000
1.000000 0.932570 0.000000
1.000000 0.929870 0.000000
1.000000 0.927382 0.000000
1.000000 0.926818 0.000000
1.000000 0.926818 0.000000
1.000000 0.926818 0.000000
1.000000 0.926818 0.000000
1.000000 0.926818 0.000000
0.023651 0.983352 0.023651
0.023651 0.983352 0.023651
0.023651 0.983352 0.023651
0.023651 0.983352 0.023651
0.023651 0.983352 0.023651
0.023651 0.983352 0.023651
0.023651 0.983352 0.023651
0.023651 0.983352 0.023651
0.023651 0.983352 0.023651
0.023651 0.983352 0.023651
0.023651 0.983352 0.023651
0.023651 0.983352 0.023651
0.023651 0.983352 0.023651
0.023651 0.983352 0.023651
0.023804 0.982773 0.023804
0.103059 0.990021 0.008850
0.340642 0.991455 0.000000
0.479927 0.987320 0.000000
0.585550 0.983230 0.000000
0.672099 0.979217 0.000000
0.745235 0.975357 0.000000
0.808209 0.971679 0.000000
0.863096 0.968185 0.000000
0.911177 0.964904 0.000000
0.953521 0.961837 0.000000
0.990921 0.958984 0.000000
1.000000 0.956359 0.000000
1.000000 0.953948 0.000000
1.000000 0.953414 0.000000
1.000000 0.953414 0.000000
1.000000 0.953414 0.000000
1.000000 0.953414 0.000000
1.000000 0.953414 0.000000
0.023651 0.983352 0.023651
0.023651 0.983352 0.023651
0.023651 0.983352 0.023651
0.023651 0.983352 0.023651
0.023651 0.983352 0.023651
0.023651 0.983352 0.023651
0.023651 0.983352 0.023651
0.023651 0.983352 0.023651
0.023651 0.983352 0.023651
0.023651 0.983352 0.023651
0.023651 0.983352 0.023651
0.023651 0.983352 0.023651
0.023651 0.983352 0.023651
0.023651 0.983352 0.023651
0.023651 0.983352 0.023651
0.023651 0.983352 0.023651
0.302296 1.000000 0.000000
0.453239 1.000000 0.000000
0.564004 1.000000 0.000000
0.653559 1.000000 0.000000
0.728679 0.998535 0.000000
0.793072 0.994949 0.000000
0.849027 0.991547 0.000000
0.897932 0.988357 0.000000
0.940948 0.985367 0.000000
0.978866 0.982605 0.000000
1.000000 0.980041 0.000000
