resources/luts/Sony_Special_Sauce.cube
# Fujifilm X-H2S F-Log2/F-Gamut to WDR BT.709
TITLE "XH2S FLog2 to Rec709"
LUT_3D_SIZE 5
0.000000 0.000000 0.000000
0.174731 0.020905 0.020905
0.671412 0.061860 0.061860
0.841520 0.067597 0.067597
0.841520 0.067597 0.067597
0.031434 0.149233 0.031434
0.159396 0.152789 0.043275
0.658412 0.061295 0.061295
0.841520 0.067597 0.067597
0.841520 0.067597 0.067597
0.070466 0.619242 0.070466
0.070497 0.615442 0.070497
0.649104 0.625284 0.035080
1.000000 0.579492 0.000000
1.000000 0.564828 0.000000
0.026398 0.972778 0.026398
0.027161 0.969772 0.027161
0.378149 0.966033 0.000000
0.966995 0.935515 0.000000
1.000000 0.926818 0.000000
0.023651 0.983352 0.023651
0.023651 0.983352 0.023651
0.250935 1.000000 0.000000
0.926009 1.000000 0.000000
1.000000 1.000000 0.000000
0.006104 0.006104 0.123796
0.175708 0.026337 0.142657
0.678874 0.063920 0.177279
0.849454 0.068574 0.164263
0.848905 0.068513 0.157534
0.036973 0.154147 0.147036
0.156588 0.156588 0.156588
0.665064 0.063233 0.166934
0.848539 0.068482 0.152880
0.847944 0.068406 0.145541
0.070420 0.619684 0.086091
0.070466 0.615747 0.083452
0.646860 0.624933 0.035508
1.000000 0.579187 0.000000
1.000000 0.564523 0.000000
0.026444 0.972564 0.026444
0.027222 0.969558 0.027222
0.374166 0.965866 0.000000
0.965515 0.935332 0.000000
1.000000 0.926650 0.000000
0.023651 0.983352 0.023651
0.023651 0.983352 0.023651
0.245106 1.000000 0.000000
0.924468 1.000000 0.000000
1.000000 1.000000 0.000000
0.023789 0.023789 0.482856
0.139757 0.037644 0.496345
0.692363 0.068650 0.586069
0.881712 0.070588 0.602289
0.881605 0.070588 0.600717
0.049531 0.164523 0.521538
0.094636 0.156710 0.526146
0.678706 0.068345 0.581827
0.881544 0.070588 0.599664
0.881437 0.070588 0.598077
0.066804 0.637049 0.611353
0.067002 0.633234 0.610330
0.627710 0.627710 0.627710
1.000000 0.576486 0.623331
1.000000 0.561746 0.621378
0.000000 0.989670 0.596780
0.000000 0.987198 0.596155
0.335744 0.964309 0.590448
0.951843 0.933715 0.582956
1.000000 0.925017 0.580850
0.000000 1.000000 0.585107
0.000000 1.000000 0.584482
0.184817 1.000000 0.578653
0.910109 1.000000 0.571008
1.000000 1.000000 0.568856
0.035157 0.035157 0.713497
0.043229 0.036103 0.714214
0.688228 0.070069 0.852949
0.899489 0.070008 0.881849
0.899428 0.070008 0.880797
0.055177 0.164218 0.768978
0.053529 0.150698 0.762585
0.674174 0.069902 0.848875
0.899382 0.070024 0.880095
0.899321 0.070024 0.879042
0.063050 0.642557 0.907439
0.063325 0.638743 0.906294
0.602792 0.623301 0.962631
1.000000 0.572976 0.958221
1.000000 0.558129 0.957000
0.000000 0.987701 0.941772
0.000000 0.985229 0.941390
0.278813 0.962280 0.937911
0.932189 0.932189 0.932189
1.000000 0.922911 0.932128
0.000000 1.000000 0.934691
0.000000 1.000000 0.934310
0.068605 1.000000 0.930800
0.891157 1.000000 0.926238
1.000000 1.000000 0.924956
0.035630 0.035630 0.723125
0.035630 0.035630 0.723125
0.683314 0.070069 0.866514
0.900618 0.069917 0.900618
0.900618 0.069917 0.900618
0.055146 0.161761 0.779919
0.053468 0.148043 0.773632
0.669245 0.069917 0.864073
0.900618 0.069917 0.900618
0.900618 0.069917 0.900618
0.062425 0.642573 0.938277
0.062913 0.638697 0.937224
0.594629 0.622400 1.000000
1.000000 0.571984 1.000000
1.000000 0.557122 1.000000
0.000000 0.987167 1.000000
0.000000 0.984695 1.000000
0.261021 0.961730 1.000000
0.928771 0.931044 1.000000
1.000000 0.922316 1.000000
0.000000 1.000000 1.000000
0.000000 1.000000 1.000000
0.025986 1.000000 1.000000
0.885817 1.000000 1.000000
1.000000 1.000000 1.000000
